X:1
T: The New Scotland Strathspey
C:
R:Strathspey
Q: 128
K:A
M:4/4
L:1/16
|:A3B|c3B A3B c3A a3A|g3A e3A c3A ce3|B3A G3A B3G g3G|=f3G d3G B3G Bd3|
c3B A3B c3A a3A|g3A e3A c3A ce3|d3B G3B d3G Bd3|ce3 A3B A4:|
|:c3d|e4 c3e A3e ce3|c3A a3A g3A e2Bc|d4 B3d G3d Bd3|B3G g3G =f3G d2cd|
e4 c3e A3e ce3|((3c2B2A2) a3A g3A e2Bc|d3B G3B d3G Bd3|ce3 A3B A4:|
e4|((3c2B2A2) e3A cA3 e3A|a4 g3a e3a ca3|((3B2A2G2) d3G B3G d3G|g4 =f3g d3g Bg3|
((3c2B2A2) e3A cA3 e3A|a4 g3a e3a ca3|d3B G3B d3G Bd3|ce3 A3B A4||
